lib/logo_tmp/nrk-logo-nrk-yr-radio-with-bg.svg

<svg width="66" height="24" viewBox="0 0 66 24" fill="none" xmlns="http://www.w3.org/2000/svg">
<rect width="66" height="24" fill="#D9E9FF"/>
<path d="M6.00427 17.9999V6.00097H9.94146V17.9999H6.00427ZM15.2981 7.91066L17.5623 17.9999H13.2534L10.5498 6.00097H12.9664C13.5206 5.99378 14.0583 6.18913 14.4788 6.55027C14.8999 6.89626 15.1892 7.37658 15.2981 7.91066ZM18.1538 17.9999V6.00097H22.091V17.9999H18.1538ZM25.0647 10.564C24.6405 10.5681 24.223 10.4571 23.8568 10.2428C23.4955 10.034 23.1954 9.73384 22.9865 9.37248C22.7721 9.00621 22.661 8.58864 22.6652 8.1642C22.6604 7.74234 22.7715 7.32726 22.9865 6.96431C23.1976 6.60687 23.4974 6.30997 23.8568 6.1024C24.2231 5.88838 24.6405 5.77739 25.0647 5.78126C25.4865 5.77672 25.9014 5.88781 26.2645 6.1024C26.6203 6.31179 26.9169 6.60844 27.1263 6.96431C27.3411 7.32736 27.4522 7.74237 27.4476 8.1642C27.4515 8.58861 27.3405 9.00611 27.1263 9.37248C26.9191 9.73225 26.6222 10.0322 26.2645 10.2428C25.9014 10.4579 25.4867 10.569 25.0647 10.564ZM28.0559 17.9999V6.00097H31.9934V17.9999H28.0559ZM36.978 12.5581C36.9891 12.5698 37.0735 12.7078 37.2314 12.9721C37.3893 13.2365 37.5949 13.5746 37.8482 13.9862C38.1017 14.3976 38.3692 14.8341 38.6506 15.2959C38.932 15.7576 39.1969 16.1942 39.4451 16.6057C39.6924 17.0171 39.974 17.4818 40.29 17.9999H35.9641C35.6936 17.5605 35.4484 17.1633 35.2287 16.8084C35.0091 16.4535 34.7756 16.0705 34.5281 15.6592C34.2801 15.2484 34.0349 14.8484 33.7925 14.4593C33.5501 14.0703 33.3418 13.7295 33.1675 13.4369C32.9925 13.1442 32.8713 12.947 32.8039 12.8454C32.6368 12.5933 32.5379 12.3022 32.517 12.0004C32.5337 11.7108 32.6269 11.4309 32.787 11.189C32.8546 11.0763 32.9786 10.8763 33.1588 10.589C33.339 10.3017 33.5503 9.96093 33.7925 9.5666C34.0347 9.17227 34.2799 8.76948 34.5281 8.35825C34.7763 7.94703 35.0098 7.56111 35.2287 7.20059C35.4488 6.84043 35.6939 6.44046 35.9641 6.00069H40.29L36.9439 11.4594C36.8404 11.6214 36.782 11.8082 36.7749 12.0004C36.786 12.2022 36.8571 12.3962 36.978 12.5581Z" fill="#0A2343"/>
<circle cx="51.8571" cy="12" r="8.57143" fill="white"/>
<path d="M55.4904 10.1449H54.2392C54.0518 10.1474 53.8728 10.2229 53.7403 10.3555C53.6079 10.488 53.5324 10.667 53.5299 10.8544V12.6686C53.7545 12.5691 53.9943 12.5082 54.2392 12.4883H55.6187C55.7838 12.4964 55.9488 12.4712 56.104 12.4142C56.2591 12.3572 56.4012 12.2696 56.5218 12.1565C56.6347 12.0358 56.7223 11.8937 56.7793 11.7386C56.8362 11.5835 56.8615 11.4185 56.8536 11.2534C56.8615 11.1031 56.8341 10.953 56.7738 10.8151C56.7134 10.6772 56.6218 10.5552 56.506 10.459C56.2137 10.2406 55.855 10.1297 55.4904 10.1449Z" fill="#00B8F1"/>
<path d="M51.857 3.14282C49.508 3.14282 47.2552 4.07598 45.5942 5.73699C43.9331 7.398 43 9.65081 43 11.9998C43 14.3489 43.9331 16.6017 45.5941 18.2628C47.2551 19.9238 49.508 20.857 51.857 20.8571C54.2061 20.8571 56.459 19.9239 58.12 18.2629C59.7811 16.6018 60.7143 14.3489 60.7143 11.9998C60.7142 9.65078 59.781 7.39796 58.12 5.73696C56.4589 4.07596 54.206 3.14282 51.857 3.14282ZM51.1901 13.6047C51.1837 15.4969 49.8271 16.0986 49.3098 16.3994L48.4183 15.321L48.439 15.3108L48.4183 15.2862C48.705 15.1427 49.7699 14.5963 49.7699 13.7593V13.1275C49.6233 13.425 48.8646 13.7618 48.3486 13.7703H48.2916C47.5574 13.7714 46.8494 13.4977 46.3068 13.003C46.0212 12.7263 45.7966 12.3929 45.6473 12.0242C45.4981 11.6555 45.4276 11.2598 45.4402 10.8622V8.9543H46.8242V10.8622C46.8242 11.9722 47.5918 12.3765 48.3204 12.3867C48.9583 12.3778 49.7583 12.1013 49.7859 11.2463V8.95322H51.1887L51.1901 13.6047ZM57.2003 14.7793C57.2767 14.8593 57.3726 14.9179 57.4786 14.9495C57.5845 14.981 57.6969 14.9845 57.8045 14.9594L57.8026 16.1066H56.9631C56.9534 16.1066 56.944 16.1083 56.9355 16.1083C56.9269 16.1083 56.9158 16.1083 56.9059 16.1066H56.8749V16.1049C56.7113 16.0913 56.5574 16.0216 56.4394 15.9075L54.806 13.9067H54.2406C54.0531 13.9092 53.8741 13.9848 53.7416 14.1174C53.6091 14.2499 53.5337 14.4291 53.5313 14.6165V16.1066H52.1128V10.8542C52.1135 10.29 52.3379 9.74909 52.7367 9.35C53.1355 8.9509 53.6763 8.72617 54.2406 8.72507H55.4918C56.1872 8.70819 56.8667 8.93437 57.4133 9.36465C57.6888 9.59468 57.9092 9.8836 58.0582 10.2101C58.2072 10.5366 58.2811 10.8924 58.2743 11.2513C58.2823 11.603 58.2203 11.9528 58.0919 12.2804C57.9635 12.6079 57.7712 12.9067 57.5264 13.1592C57.2182 13.4647 56.8363 13.6854 56.4178 13.7999C56.4178 13.7999 56.8967 14.4542 57.2003 14.7782V14.7793Z" fill="#00B8F1"/>
</svg>

<svg xmlns="http://www.w3.org/2000/svg" viewBox="0 0 66 24"><path fill="#D9E9FF" d="M0 0h66v24H0z"/><path fill="#0A2343" d="M6.004 18V6h3.937V18H6.004Zm9.294-10.09L17.562 18h-4.309L10.55 6h2.416a2.276 2.276 0 0 1 1.513.55c.42.345.71.826.82 1.36ZM18.154 18V6h3.937V18h-3.937Zm6.91-7.436a2.382 2.382 0 0 1-2.4-2.4 2.303 2.303 0 0 1 .323-1.2 2.411 2.411 0 0 1 3.278-.862c.355.21.652.506.861.862.215.363.326.778.322 1.2.003.425-.108.842-.322 1.208a2.4 2.4 0 0 1-.861.87 2.3 2.3 0 0 1-1.2.322ZM28.057 18V6h3.937V18h-3.937Zm8.922-5.442c.011.012.096.15.253.414.158.264.364.603.617 1.014a309.436 309.436 0 0 1 1.597 2.62c.247.411.529.876.845 1.394h-4.326c-.27-.44-.516-.837-.735-1.192-.22-.355-.453-.738-.7-1.149-.249-.41-.494-.81-.737-1.2-.242-.389-.45-.73-.625-1.022a18.04 18.04 0 0 0-.363-.592 1.748 1.748 0 0 1-.287-.845c.017-.29.11-.57.27-.811.068-.113.192-.313.372-.6s.391-.628.633-1.022c.243-.395.488-.798.736-1.209l.7-1.157.736-1.2h4.326l-3.346 5.458a1.079 1.079 0 0 0-.17.541c.012.202.083.396.204.558Z"/><circle cx="51.857" cy="12" r="8.571" fill="#fff"/><path fill="#00B8F1" d="M55.49 10.145h-1.25a.719.719 0 0 0-.71.71v1.814c.224-.1.464-.16.71-.18h1.379a1.232 1.232 0 0 0 .903-.333 1.236 1.236 0 0 0 .332-.903.967.967 0 0 0-.348-.794 1.586 1.586 0 0 0-1.016-.314Z"/><path fill="#00B8F1" d="M51.857 3.143a8.857 8.857 0 1 0 0 17.714 8.857 8.857 0 0 0 0-17.714Zm-.667 10.462c-.006 1.892-1.363 2.494-1.88 2.794l-.892-1.078.021-.01-.02-.025c.286-.143 1.35-.69 1.35-1.527v-.632c-.146.298-.904.635-1.42.643h-.057a2.94 2.94 0 0 1-1.985-.767 2.854 2.854 0 0 1-.867-2.14V8.953h1.384v1.908c0 1.11.768 1.514 1.496 1.525.638-.01 1.438-.286 1.466-1.14V8.952h1.403l.001 4.652Zm6.01 1.174a.636.636 0 0 0 .604.18l-.001 1.148h-.84l-.028.001-.03-.001h-.03v-.002a.711.711 0 0 1-.436-.197l-1.633-2.001h-.565a.719.719 0 0 0-.71.71v1.49h-1.418v-5.253a2.132 2.132 0 0 1 2.128-2.129h1.25a2.99 2.99 0 0 1 1.922.64 2.399 2.399 0 0 1 .861 1.886 2.655 2.655 0 0 1-.748 1.908 2.52 2.52 0 0 1-1.108.64s.479.655.782.98Z"/></svg>
